svg/business/red_packet_line.svg

<?xml version="1.0" encoding="UTF-8"?>
<svg width="24px" height="24px" viewBox="0 0 24 24" version="1.1" xmlns="http://www.w3.org/2000/svg" xmlns:xlink="http://www.w3.org/1999/xlink">
    <title>red_packet_line</title>
    <g id="页面-1" stroke="none" stroke-width="1" fill="none" fill-rule="evenodd">
        <g id="Business" transform="translate(-816.000000, -96.000000)">
            <g id="red_packet_line" transform="translate(816.000000, 96.000000)">
                <path d="M24,0 L24,24 L0,24 L0,0 L24,0 Z M12.5934901,23.257841 L12.5819402,23.2595131 L12.5108777,23.2950439 L12.4918791,23.2987469 L12.4918791,23.2987469 L12.4767152,23.2950439 L12.4056548,23.2595131 C12.3958229,23.2563662 12.3870493,23.2590235 12.3821421,23.2649074 L12.3780323,23.275831 L12.360941,23.7031097 L12.3658947,23.7234994 L12.3769048,23.7357139 L12.4804777,23.8096931 L12.4953491,23.8136134 L12.4953491,23.8136134 L12.5071152,23.8096931 L12.6106902,23.7357139 L12.6232938,23.7196733 L12.6232938,23.7196733 L12.6266527,23.7031097 L12.609561,23.275831 C12.6075724,23.2657013 12.6010112,23.2592993 12.5934901,23.257841 L12.5934901,23.257841 Z M12.8583906,23.1452862 L12.8445485,23.1473072 L12.6598443,23.2396597 L12.6498822,23.2499052 L12.6498822,23.2499052 L12.6471943,23.2611114 L12.6650943,23.6906389 L12.6699349,23.7034178 L12.6699349,23.7034178 L12.678386,23.7104931 L12.8793402,23.8032389 C12.8914285,23.8068999 12.9022333,23.8029875 12.9078286,23.7952264 L12.9118235,23.7811639 L12.8776777,23.1665331 C12.8752882,23.1545897 12.8674102,23.1470016 12.8583906,23.1452862 L12.8583906,23.1452862 Z M12.1430473,23.1473072 C12.1332178,23.1423925 12.1221763,23.1452606 12.1156365,23.1525954 L12.1099173,23.1665331 L12.0757714,23.7811639 C12.0751323,23.7926639 12.0828099,23.8018602 12.0926481,23.8045676 L12.108256,23.8032389 L12.3092106,23.7104931 L12.3186497,23.7024347 L12.3186497,23.7024347 L12.3225043,23.6906389 L12.340401,23.2611114 L12.337245,23.2485176 L12.337245,23.2485176 L12.3277531,23.2396597 L12.1430473,23.1473072 Z" id="MingCute" fill-rule="nonzero"></path>
                <path d="M4,5 C4,3.34315 5.34315,2 7,2 L17,2 C18.6569,2 20,3.34315 20,5 L20,19 C20,20.6569 18.6569,22 17,22 L7,22 C5.34315,22 4,20.6569 4,19 L4,5 Z M7,4 C6.52756,4 6.13163,4.32763 6.02703,4.76807 L6.79951,6.05553 C7.89555,7.88227 9.86967,9 12,9 C14.1303,9 16.1044,7.88227 17.2005,6.05553 L17.973,4.76807 C17.8684,4.32762 17.4724,4 17,4 L7,4 Z M6,19 L6,8.3244 C7.1821,9.6406 8.76715,10.533 10.5064,10.8607 C10.5022,10.9065 10.5,10.953 10.5,11 C10.5,11.8284 11.1716,12.5 12,12.5 C12.8284,12.5 13.5,11.8284 13.5,11 C13.5,10.953 13.4978,10.9065 13.4936,10.8607 C15.2328,10.533 16.8179,9.6406 18,8.3244 L18,19 C18,19.5523 17.5523,20 17,20 L7,20 C6.44772,20 6,19.5523 6,19 Z" id="形状" fill="#09244B"></path>
            </g>
        </g>
    </g>
</svg>

<svg xmlns="http://www.w3.org/2000/svg" width="24" height="24"><g fill="none" fill-rule="evenodd"><path d="M24 0v24H0V0zM12.593 23.258l-.011.002-.071.035-.02.004-.014-.004-.071-.035c-.01-.004-.019-.001-.024.005l-.004.01-.017.428.005.02.01.013.104.074.015.004.012-.004.104-.074.012-.016.004-.017-.017-.427c-.002-.01-.009-.017-.017-.018m.265-.113-.013.002-.185.093-.01.01-.003.011.018.43.005.012.008.007.201.093c.012.004.023 0 .029-.008l.004-.014-.034-.614c-.003-.012-.01-.02-.02-.022m-.715.002a.023.023 0 0 0-.027.006l-.006.014-.034.614c0 .012.007.02.017.024l.015-.002.201-.093.01-.008.004-.011.017-.43-.003-.012-.01-.01z"/><path fill="#09244B" d="M4 5a3 3 0 0 1 3-3h10a3 3 0 0 1 3 3v14a3 3 0 0 1-3 3H7a3 3 0 0 1-3-3zm3-1a1 1 0 0 0-.973.768L6.8 6.056a6.065 6.065 0 0 0 10.4 0l.773-1.288A1 1 0 0 0 17 4zM6 19V8.324a8.068 8.068 0 0 0 4.506 2.537 1.5 1.5 0 1 0 2.987 0A8.068 8.068 0 0 0 18 8.324V19a1 1 0 0 1-1 1H7a1 1 0 0 1-1-1"/></g></svg>
